img/svg-icons/book-open.svg

<svg xmlns="http://www.w3.org/2000/svg" id="book-open" viewBox="0 0 58.9 57"><path d="M57 0a1.69 1.69 0 0 0-1 .3L29.35 17.2 2.65.3a1.4 1.4 0 0 0-.9-.3 1.79 1.79 0 0 0-1.8 1.8v33.8a1.91 1.91 0 0 0 .7 1.4l27.7 19.8a2.35 2.35 0 0 0 .8.2h.4a2.35 2.35 0 0 0 .8-.2L58.15 37a1.75 1.75 0 0 0 .7-1.4V1.8A1.79 1.79 0 0 0 57 0zM1.95 2.2l26.3 16.7v35.3L1.95 35.4V2.2zm54.8 33.3l-26.3 18.8V18.9l26.3-16.7v33.3z" transform="translate(.05)"/></svg>

<svg id="book-open" xmlns="http://www.w3.org/2000/svg" width="58.9" height="57" viewBox="0 0 58.9 57"><title>book-open</title><path d="M57,0a1.69,1.69,0,0,0-1,.3L29.35,17.2,2.65,0.3A1.4,1.4,0,0,0,1.75,0,1.79,1.79,0,0,0-.05,1.8V35.6A1.91,1.91,0,0,0,.65,37l27.7,19.8a2.35,2.35,0,0,0,.8.2h0.4a2.35,2.35,0,0,0,.8-0.2L58.15,37a1.75,1.75,0,0,0,.7-1.4V1.8A1.79,1.79,0,0,0,57,0ZM1.95,2.2l26.3,16.7V54.2L1.95,35.4V2.2Zm54.8,33.3L30.45,54.3V18.9L56.75,2.2V35.5Z" transform="translate(0.05 0)"  /></svg>
